X:1
T: Corn Field
C:
R:Reel
Q: 232
K:G
M:4/4
L:1/8
|:dc|B2 BG A2 AF|GA BG D2 B2|c2 cd ed cB|A2 A2 A2 dc|
B2 BG A2 AF|GA BG D2 B2|cB AG FG AB|G2 G2 G2:|
|:dc|B2 gf e2 ed|cd Bc A2 dc|B2 gf ed cB|A2 A2 A2 dc|
Bd gf ed cB|dc Bc A2 AB|cB AG FG AB|G2 G2 G2:|
